X:4
T:Bedd Anacreon/Pastwn Mawr
R:rid\'ee
C:Ceri Rhys Matthews/trad
S:crm
Z:lesl from crm
M:6/4
L:1/4
Q:1/2=240
K:G
d5e|d2B ~G3|G2A B2e|d2B ~A3|d5e|d2B A2B|G3 ~G3:|
|:B3 GAB|A2G ~E3|~B3 G2B|A2G ~E3|d5e|d2B A2B|G3 ~G3:|
%
|B3 ABA|G2A B3|ABA G2G|E2G G2A|
B3 ABA|G2A B3|ABA G2A|B2A G2E:|
|G3 G2A|B2c d2c|BAG ABA|G3 G3|
|:E2B d2B|G2E G2B|E2B d2B|
G2~G G2A|B3 ABA|G2~G G3:|
